X: 1
T:Kipeen Scanlon's Hornpipe
R:Hornpipe
C:Ed Reavy
Z: transcribed by Bil 3/00
M:4/4
L:1/8
Z:Joe Reavy
N:Reputed to be one of the fiddlers who influenced
N:Michael Coleman. Mike once told Ed that Kipeen was the
N:best player in Ireland. A sad thing it is that none
N:of his playing was ever recorded for the younger
N:generation of players.
K:G
dc|(3BdB GB (3ABc FA|GBDC B,DGF|EGcB Acfg|(3agf (3gfe fdcA|
(3Bcd (3Bcd cAFA|GDB,D GDB,D|EcBc DAFA|G2 B2 G2:||
Bc|(3ded Bd bgdB|(3cdc Ac agfe|(3dgd Bd (3cdc Ac|
(3BdB GB ADFA|(3Bcd (3Bcd cAFA|GDB,D GDB,D|
EcBc DAFA|G2 B2 G2:||
